svg/baby_male_0306m_positive.svg

<svg width="48" height="48" viewBox="0 0 48 48" fill="none" xmlns="http://www.w3.org/2000/svg">
<path fill-rule="evenodd" clip-rule="evenodd" d="M20.6538 3.99799C19.5898 4.04489 18.4288 4.45399 17.7128 5.45508C16.7258 7.12386 17.7858 7.96164 19.2678 8.47654C15.0459 9.77012 11.7669 12.7099 10.4119 16.4158C10.1129 16.3478 9.80683 16.3128 9.49993 16.3118C7.18726 16.3118 5.31248 18.1868 5.31248 20.4998C5.31248 22.8128 7.18726 24.6877 9.49993 24.6877C9.89173 24.6867 10.2819 24.6317 10.6579 24.5227C12.7489 29.3507 18.0618 32.5496 23.9997 32.5566C26.9007 32.5536 29.7327 31.7826 32.1166 30.3477C33.4116 31.7526 35.2346 32.5536 37.1456 32.5566C40.9315 32.5566 43.9995 29.4877 43.9995 25.7027C43.9975 24.1577 43.4725 22.6588 42.5115 21.4488C42.5365 21.4798 42.5625 21.5108 42.5875 21.5428C42.6755 21.2018 42.7215 20.8518 42.7225 20.4998C42.7225 18.1868 40.8475 16.3118 38.5346 16.3118C38.2216 16.3138 37.9096 16.3508 37.6046 16.4218C35.7296 11.2659 30.2237 7.76125 23.9997 7.75975C23.6408 7.76105 23.2828 7.77405 22.9258 7.79875C22.0478 7.15216 17.9348 7.33955 19.6928 5.74797C21.2348 4.48259 23.4068 5.10668 20.5548 6.54296C24.8767 5.55088 22.9968 3.895 20.6538 3.99799ZM23.9997 9.46083C30.2417 9.47133 35.4876 13.5359 36.2086 18.9218C32.8206 19.3898 30.2967 22.2828 30.2927 25.7027C30.2937 26.8137 30.5657 27.9077 31.0837 28.8907C29.0117 30.1637 26.5377 30.8497 23.9997 30.8547C17.6258 30.8517 12.3089 26.6237 11.7419 21.1088C11.4669 22.1218 10.5489 22.8248 9.49993 22.8258C8.21515 22.8258 7.17366 21.7848 7.17376 20.4998C7.17366 19.2148 8.21515 18.1738 9.49993 18.1738C10.5039 18.1748 11.3939 18.8198 11.7069 19.7728C11.9449 14.0239 17.3758 9.46793 23.9997 9.46093V9.46083ZM20.0178 16.9998C19.1848 16.9998 18.5098 17.6748 18.5098 18.5078C18.5098 19.3398 19.1848 20.0148 20.0178 20.0158C20.8498 20.0148 21.5248 19.3398 21.5248 18.5078C21.5248 17.6748 20.8498 16.9998 20.0178 16.9998ZM28.0177 16.9998C27.1847 16.9998 26.5097 17.6748 26.5097 18.5078C26.5097 19.3398 27.1847 20.0148 28.0177 20.0158C28.8497 20.0148 29.5247 19.3398 29.5247 18.5078C29.5247 17.6748 28.8497 16.9998 28.0177 16.9998ZM38.5346 18.1738C39.5866 18.1738 40.5075 18.8798 40.7805 19.8958C39.6916 19.2128 38.4316 18.8508 37.1456 18.8498C37.0326 18.8528 36.9196 18.8588 36.8066 18.8668C36.8346 18.8638 36.8636 18.8618 36.8926 18.8588C37.3276 18.4218 37.9176 18.1758 38.5346 18.1738ZM37.1456 19.9098C40.3455 19.9098 42.9385 22.5038 42.9385 25.7027C42.9385 28.9027 40.3455 31.4956 37.1456 31.4956C33.9466 31.4956 31.3527 28.9027 31.3537 25.7027C31.3527 22.5038 33.9466 19.9098 37.1456 19.9098ZM37.0606 20.9178C36.0826 20.9478 35.1806 21.4558 34.6516 22.2788C33.7676 23.6567 34.1686 25.4907 35.5466 26.3747C36.0906 26.7217 36.7316 26.8807 37.3746 26.8297L37.8726 29.1167L36.7166 28.8337L38.5076 30.4897L39.4956 28.2267L38.5586 28.9547L38.0636 26.6967C38.7136 26.4857 39.2706 26.0547 39.6406 25.4797C40.5235 24.1027 40.1245 22.2708 38.7476 21.3868C38.2456 21.0638 37.6566 20.9008 37.0606 20.9178ZM37.1456 21.6188C37.5786 21.6188 38.0026 21.7428 38.3666 21.9768C39.4186 22.6508 39.7236 24.0497 39.0486 25.1017C38.3736 26.1527 36.9746 26.4577 35.9236 25.7827C34.8726 25.1077 34.5686 23.7087 35.2436 22.6578C35.6596 22.0098 36.3756 21.6188 37.1456 21.6188ZM19.1718 23.6407C18.9248 23.6627 18.7018 23.9047 18.7338 24.2987C18.9368 26.2767 21.2408 27.8077 24.0177 27.8107C26.7957 27.8097 29.1027 26.2777 29.3067 24.2987C28.1357 25.9517 26.3047 27.0327 24.0177 27.0797C21.8038 27.0787 19.9578 25.8727 19.7578 24.2987C19.6908 23.8147 19.4188 23.6177 19.1718 23.6407ZM4 33.9996V43.9995H43.9995V33.9996H4ZM7.86715 35.0956C8.69524 35.0956 9.32913 35.3696 9.76753 35.9156C10.2059 36.4586 10.4289 37.2396 10.4389 38.2596V39.6576C10.4389 40.7085 10.2219 41.5115 9.78703 42.0675C9.35213 42.6245 8.71544 42.9035 7.87695 42.9035C7.04876 42.9035 6.41687 42.6295 5.97848 42.0835C5.54008 41.5375 5.31508 40.7555 5.30468 39.7355V38.3376C5.30468 37.2766 5.52448 36.4696 5.96288 35.9196C6.40477 35.3696 7.03906 35.0956 7.86715 35.0956ZM13.8629 35.0956C14.6669 35.0956 15.2979 35.2896 15.7539 35.6756C16.2098 36.0586 16.4378 36.5866 16.4378 37.2616C16.4378 37.6096 16.3308 37.9296 16.1188 38.2226C15.9069 38.5146 15.6279 38.7396 15.2829 38.8956C15.7109 39.0496 16.0298 39.2776 16.2378 39.5835C16.4508 39.8895 16.5568 40.2515 16.5568 40.6695C16.5568 41.3445 16.3108 41.8855 15.8159 42.2925C15.3259 42.6995 14.6739 42.9035 13.8629 42.9035C13.1049 42.9035 12.4839 42.7045 11.9999 42.3045C11.5199 41.9045 11.2809 41.3735 11.2809 40.7165H12.7889C12.7889 41.0015 12.8949 41.2345 13.1069 41.4155C13.3229 41.5965 13.5869 41.6875 13.8999 41.6875C14.2589 41.6875 14.5379 41.5935 14.7399 41.4055C14.9459 41.2145 15.0489 40.9615 15.0489 40.6475C15.0489 39.8895 14.6319 39.5116 13.7969 39.5116H12.9979V38.3316H13.8009C14.1839 38.3316 14.4679 38.2356 14.6519 38.0446C14.8369 37.8536 14.9299 37.5996 14.9299 37.2826C14.9299 36.9766 14.8369 36.7386 14.6519 36.5676C14.4709 36.3976 14.2209 36.3116 13.8999 36.3116C13.6119 36.3116 13.3709 36.3926 13.1759 36.5526C12.9809 36.7086 12.8829 36.9136 12.8829 37.1676H11.3749C11.3749 36.7706 11.4809 36.4166 11.6929 36.1036C11.9089 35.7866 12.2069 35.5386 12.5899 35.3606C12.9759 35.1836 13.4009 35.0956 13.8629 35.0956ZM24.2967 35.0956C25.1247 35.0956 25.7587 35.3696 26.1967 35.9156C26.6357 36.4586 26.8607 37.2396 26.8707 38.2596V39.6576C26.8707 40.7085 26.6537 41.5115 26.2187 42.0675C25.7837 42.6245 25.1467 42.9035 24.3087 42.9035C23.4798 42.9035 22.8468 42.6295 22.4078 42.0835C21.9698 41.5375 21.7448 40.7555 21.7338 39.7355V38.3376C21.7338 37.2766 21.9538 36.4696 22.3928 35.9196C22.8338 35.3696 23.4688 35.0956 24.2967 35.0956ZM31.7337 35.1226H31.9857V36.3646H31.8397C31.1577 36.3756 30.6067 36.5516 30.1887 36.8956C29.7747 37.2406 29.5267 37.7196 29.4427 38.3316C29.8467 37.9206 30.3567 37.7166 30.9727 37.7166C31.6337 37.7166 32.1586 37.9526 32.5486 38.4256C32.9386 38.8986 33.1346 39.5216 33.1346 40.2945C33.1346 40.7885 33.0256 41.2365 32.8106 41.6365C32.5976 42.0365 32.2956 42.3475 31.9017 42.5695C31.5127 42.7925 31.0697 42.9035 30.5757 42.9035C29.7757 42.9035 29.1287 42.6245 28.6347 42.0675C28.1437 41.5115 27.8977 40.7685 27.8977 39.8395V39.2966C27.8977 38.4716 28.0537 37.7446 28.3627 37.1146C28.6757 36.4816 29.1237 35.9926 29.7047 35.6476C30.2897 35.2996 30.9647 35.1266 31.7337 35.1226ZM34.1926 35.2006H36.2396L38.1906 40.7125L40.1325 35.2006H42.1885V42.7985H40.6185V40.7225L40.7745 37.1366L38.7246 42.7985H37.6476L35.6016 37.1426L35.7596 40.7225V42.7985H34.1926V35.2006ZM7.86695 36.3156C7.51206 36.3156 7.24836 36.4556 7.07786 36.7296C6.91086 37.0016 6.82266 37.4266 6.81227 38.0076V39.8545C6.81227 40.4745 6.89526 40.9355 7.06226 41.2375C7.23276 41.5375 7.50436 41.6875 7.87675 41.6875C8.24555 41.6875 8.51194 41.5425 8.67554 41.2535C8.83904 40.9645 8.92444 40.5245 8.93134 39.9295V38.1226C8.93134 37.4926 8.84364 37.0346 8.66964 36.7496C8.49914 36.4606 8.23225 36.3156 7.86695 36.3156ZM24.2967 36.3156C23.9418 36.3156 23.6798 36.4556 23.5098 36.7296C23.3428 37.0016 23.2548 37.4266 23.2438 38.0076V39.8545C23.2438 40.4745 23.3268 40.9355 23.4938 41.2375C23.6648 41.5375 23.9358 41.6875 24.3087 41.6875C24.6767 41.6875 24.9437 41.5425 25.1067 41.2535C25.2707 40.9645 25.3537 40.5245 25.3607 39.9295V38.1226C25.3607 37.4926 25.2757 37.0346 25.1017 36.7496C24.9307 36.4606 24.6617 36.3156 24.2967 36.3156ZM30.5137 38.9276C30.2697 38.9276 30.0497 38.9896 29.8517 39.1186C29.6527 39.2436 29.5057 39.4116 29.4117 39.6205V40.0795C29.4117 40.5845 29.5107 40.9795 29.7087 41.2655C29.9067 41.5465 30.1867 41.6875 30.5447 41.6875C30.8687 41.6875 31.1297 41.5605 31.3277 41.3065C31.5297 41.0485 31.6307 40.7175 31.6307 40.3105C31.6307 39.8955 31.5297 39.5625 31.3277 39.3086C31.1257 39.0546 30.8547 38.9276 30.5137 38.9276ZM17.6578 38.9376H20.5978V40.1535H17.6578V38.9376Z" fill="#333333"/>
</svg>

<?xml version="1.0" encoding="UTF-8" standalone="no"?>
<!-- Created with Inkscape (http://www.inkscape.org/) -->
<svg id="svg8" xmlns:rdf="http://www.w3.org/1999/02/22-rdf-syntax-ns#" xmlns="http://www.w3.org/2000/svg" xmlns:osb="http://www.openswatchbook.org/uri/2009/osb" height="48" width="48" version="1.1" xmlns:cc="http://creativecommons.org/ns#" viewBox="0 0 12.7 12.7" xmlns:dc="http://purl.org/dc/elements/1.1/">
 <title id="title4753">UIO-icon</title>
 <metadata id="metadata5">
  <rdf:RDF>
   <cc:Work rdf:about="">
    <dc:format>image/svg+xml</dc:format>
    <dc:type rdf:resource="http://purl.org/dc/dcmitype/StillImage"/>
    <dc:title>UIO-icon</dc:title>
    <dc:creator>
     <cc:Agent>
      <dc:title>Joaquín Urbano</dc:title>
     </cc:Agent>
    </dc:creator>
    <dc:rights>
     <cc:Agent>
      <dc:title>GPL</dc:title>
     </cc:Agent>
    </dc:rights>
   </cc:Work>
  </rdf:RDF>
 </metadata>
 <g id="layer1" transform="translate(0,-284.3)">
  <path id="circle5040" d="m20.654 3.998c-1.064 0.0469-2.225 0.456-2.941 1.4571-0.987 1.6688 0.073 2.5066 1.555 3.0215-4.222 1.2936-7.501 4.2334-8.856 7.9394-0.299-0.068-0.6051-0.103-0.912-0.104-2.3127 0-4.1875 1.875-4.1875 4.188s1.8748 4.188 4.1875 4.188c0.3918-0.001 0.782-0.056 1.158-0.165 2.091 4.828 7.404 8.027 13.342 8.034 2.901-0.003 5.733-0.774 8.117-2.209 1.295 1.405 3.118 2.206 5.029 2.209 3.786 0 6.854-3.069 6.854-6.854-0.002-1.545-0.527-3.044-1.488-4.254 0.025 0.031 0.051 0.062 0.076 0.094 0.088-0.341 0.134-0.691 0.135-1.043 0-2.313-1.875-4.188-4.188-4.188-0.313 0.002-0.625 0.039-0.93 0.11-1.875-5.156-7.381-8.6607-13.605-8.6622-0.359 0.0013-0.717 0.0143-1.074 0.039-0.878-0.6466-4.991-0.4592-3.233-2.0508 1.542-1.2654 3.714-0.6413 0.862 0.795 4.322-0.9921 2.442-2.648 0.099-2.545zm3.346 5.4629c6.242 0.0105 11.488 4.0751 12.209 9.4611-3.388 0.468-5.912 3.361-5.916 6.781 0.001 1.111 0.273 2.205 0.791 3.188-2.072 1.273-4.546 1.959-7.084 1.964-6.374-0.003-11.691-4.231-12.258-9.746-0.275 1.013-1.193 1.716-2.242 1.717-1.2848 0-2.3263-1.041-2.3262-2.326-0.0001-1.285 1.0414-2.326 2.3262-2.326 1.004 0.001 1.894 0.646 2.207 1.599 0.238-5.749 5.669-10.305 12.293-10.312zm-3.982 7.5391c-0.833 0-1.508 0.675-1.508 1.508 0 0.832 0.675 1.507 1.508 1.508 0.832-0.001 1.507-0.676 1.507-1.508 0-0.833-0.675-1.508-1.507-1.508zm8 0c-0.833 0-1.508 0.675-1.508 1.508 0 0.832 0.675 1.507 1.508 1.508 0.832-0.001 1.507-0.676 1.507-1.508 0-0.833-0.675-1.508-1.507-1.508zm10.517 1.174c1.052 0 1.973 0.706 2.246 1.722-1.089-0.683-2.349-1.045-3.635-1.046-0.113 0.003-0.226 0.009-0.339 0.017 0.028-0.003 0.057-0.005 0.086-0.008 0.435-0.437 1.025-0.683 1.642-0.685zm-1.389 1.736c3.2 0 5.793 2.594 5.793 5.793 0 3.2-2.593 5.793-5.793 5.793-3.199 0-5.793-2.593-5.792-5.793-0.001-3.199 2.593-5.793 5.792-5.793zm-0.085 1.008c-0.978 0.03-1.88 0.538-2.409 1.361-0.884 1.378-0.483 3.212 0.895 4.096 0.544 0.347 1.185 0.506 1.828 0.455l0.498 2.287-1.156-0.283 1.791 1.656 0.988-2.263-0.937 0.728-0.495-2.258c0.65-0.211 1.207-0.642 1.577-1.217 0.883-1.377 0.484-3.209-0.893-4.093-0.502-0.323-1.091-0.486-1.687-0.469zm0.085 0.701c0.433 0 0.857 0.124 1.221 0.358 1.052 0.674 1.357 2.073 0.682 3.125-0.675 1.051-2.074 1.356-3.125 0.681s-1.355-2.074-0.68-3.125c0.416-0.648 1.132-1.039 1.902-1.039zm-17.974 2.022c-0.247 0.022-0.47 0.264-0.438 0.658 0.203 1.978 2.507 3.509 5.284 3.512 2.778-0.001 5.085-1.533 5.289-3.512-1.171 1.653-3.002 2.734-5.289 2.781-2.214-0.001-4.06-1.207-4.26-2.781-0.067-0.484-0.339-0.681-0.586-0.658zm-15.172 10.359v10h40v-10h-40zm3.8672 1.096c0.8281 0 1.462 0.274 1.9004 0.82 0.4384 0.543 0.6614 1.324 0.6714 2.344v1.398c0 1.051-0.217 1.854-0.6519 2.41-0.4349 0.557-1.0716 0.836-1.9101 0.836-0.8282 0-1.4601-0.274-1.8985-0.82s-0.6634-1.328-0.6738-2.348v-1.398c0-1.061 0.2198-1.868 0.6582-2.418 0.4419-0.55 1.0762-0.824 1.9043-0.824zm5.9958 0c0.804 0 1.435 0.194 1.891 0.58 0.456 0.383 0.684 0.911 0.684 1.586 0 0.348-0.107 0.668-0.319 0.961-0.212 0.292-0.491 0.517-0.836 0.673 0.428 0.154 0.747 0.382 0.955 0.688 0.213 0.306 0.319 0.668 0.319 1.086 0 0.675-0.246 1.216-0.741 1.623-0.49 0.407-1.142 0.611-1.953 0.611-0.758 0-1.379-0.199-1.863-0.599-0.48-0.4-0.719-0.931-0.719-1.588h1.508c0 0.285 0.106 0.518 0.318 0.699 0.216 0.181 0.48 0.272 0.793 0.272 0.359 0 0.638-0.094 0.84-0.282 0.206-0.191 0.309-0.444 0.309-0.758 0-0.758-0.417-1.136-1.252-1.136h-0.799v-1.18h0.803c0.383 0 0.667-0.096 0.851-0.287 0.185-0.191 0.278-0.445 0.278-0.762 0-0.306-0.093-0.544-0.278-0.715-0.181-0.17-0.431-0.256-0.752-0.256-0.288 0-0.529 0.081-0.724 0.241-0.195 0.156-0.293 0.361-0.293 0.615h-1.508c0-0.397 0.106-0.751 0.318-1.064 0.216-0.317 0.514-0.565 0.897-0.743 0.386-0.177 0.811-0.265 1.273-0.265zm10.434 0c0.828 0 1.462 0.274 1.9 0.82 0.439 0.543 0.664 1.324 0.674 2.344v1.398c0 1.051-0.217 1.854-0.652 2.41-0.435 0.557-1.072 0.836-1.91 0.836-0.829 0-1.462-0.274-1.901-0.82-0.438-0.546-0.663-1.328-0.674-2.348v-1.398c0-1.061 0.22-1.868 0.659-2.418 0.441-0.55 1.076-0.824 1.904-0.824zm7.437 0.027h0.252v1.242h-0.146c-0.682 0.011-1.233 0.187-1.651 0.531-0.414 0.345-0.662 0.824-0.746 1.436 0.404-0.411 0.914-0.615 1.53-0.615 0.661 0 1.186 0.236 1.576 0.709s0.586 1.096 0.586 1.869c0 0.494-0.109 0.942-0.324 1.342-0.213 0.4-0.515 0.711-0.909 0.933-0.389 0.223-0.832 0.334-1.326 0.334-0.8 0-1.447-0.279-1.941-0.836-0.491-0.556-0.737-1.299-0.737-2.228v-0.543c0-0.825 0.156-1.552 0.465-2.182 0.313-0.633 0.761-1.122 1.342-1.467 0.585-0.348 1.26-0.521 2.029-0.525zm2.459 0.078h2.047l1.951 5.512 1.942-5.512h2.056v7.598h-1.57v-2.076l0.156-3.586-2.05 5.662h-1.077l-2.046-5.656 0.158 3.58v2.076h-1.567v-7.598zm-26.326 1.115c-0.3549 0-0.6186 0.14-0.7891 0.414-0.167 0.272-0.2552 0.697-0.2656 1.278v1.847c0 0.62 0.083 1.081 0.25 1.383 0.1705 0.3 0.4421 0.45 0.8145 0.45 0.3688 0 0.6352-0.145 0.7988-0.434 0.1635-0.289 0.2489-0.729 0.2558-1.324v-1.807c0-0.63-0.0877-1.088-0.2617-1.373-0.1705-0.289-0.4374-0.434-0.8027-0.434zm16.43 0c-0.355 0-0.617 0.14-0.787 0.414-0.167 0.272-0.255 0.697-0.266 1.278v1.847c0 0.62 0.083 1.081 0.25 1.383 0.171 0.3 0.442 0.45 0.815 0.45 0.368 0 0.635-0.145 0.798-0.434 0.164-0.289 0.247-0.729 0.254-1.324v-1.807c0-0.63-0.085-1.088-0.259-1.373-0.171-0.289-0.44-0.434-0.805-0.434zm6.217 2.612c-0.244 0-0.464 0.062-0.662 0.191-0.199 0.125-0.346 0.293-0.44 0.502v0.459c0 0.505 0.099 0.9 0.297 1.186 0.198 0.281 0.478 0.422 0.836 0.422 0.324 0 0.585-0.127 0.783-0.381 0.202-0.258 0.303-0.589 0.303-0.996 0-0.415-0.101-0.748-0.303-1.002s-0.473-0.381-0.814-0.381zm-12.856 0.01h2.94v1.216h-2.94v-1.216z" fill-rule="evenodd" transform="matrix(.26458 0 0 .26458 0 284.3)" fill="#333"/>
 </g>
</svg>
